app/dist/common/images/matrix-service-company.svg

<svg height="18" viewBox="0 0 18 18" width="18" xmlns="http://www.w3.org/2000/svg"><path d="m0 0h18v18h-18z" fill="#f0f3fa"/><path d="m9 9.3v1.3l4.93-3.14.56-1.66zm2.59 3 2.41-1.45v-1.3l-2.41 1.45zm0 1.7 2.91-1.8-.57-.94-2.34 1.44zm-2.59-1.7 5-3.14v-1.3l-5 3.13v1.3zm-.31.2-2.28 1.5v-1.3l1.26-.85zm-2.28-.2v-1.3l.94.65-.94.64z" fill="#66b841"/><g fill="#221e1f"><path d="m9.31 12.5 2.28 1.5v-1.3l-1.26-.85zm2.28-.2v-1.3l-.94.65.94.64zm-2.59-3v1.3l-4.92-3.14-.57-1.66 5.5 3.5zm-2.59 3-2.41-1.45v-1.3l2.41 1.45zm0 1.7-2.91-1.8.57-.94 2.34 1.44zm2.59-1.7-5-3.15v-1.3l5 3.13v1.3zm4.32-7.45-4.31 2.74-4.33-2.74-1.02.64 5.34 3.41 5.33-3.4-1.02-.64z"/><path d="m11.98 4-2.97 1.9-3.01-1.9-1 .64 4 2.56 4-2.56-1.01-.64z"/></g></svg>

<!-- by TradingView --><svg width="18" height="18" viewBox="0 0 18 18" xmlns="http://www.w3.org/2000/svg"><path fill="#F0F3FA" d="M0 0h18v18H0z"/><path d="M9 9.3v1.3l4.93-3.14.56-1.66L9 9.3ZM11.59 12.3 14 10.85v-1.3L11.59 11v1.3ZM11.59 14l2.91-1.8-.57-.94-2.34 1.44V14ZM9 12.3l5-3.14v-1.3l-5 3.13v1.3ZM8.69 12.5 6.41 14v-1.3l1.26-.85 1.02.65ZM6.41 12.3V11l.94.65-.94.64Z" fill="#66B841"/><path d="m9.31 12.5 2.28 1.5v-1.3l-1.26-.85-1.02.65ZM11.59 12.3V11l-.94.65.94.64ZM9 9.3v1.3L4.08 7.46 3.51 5.8l5.5 3.5ZM6.41 12.3 4 10.85v-1.3L6.41 11v1.3ZM6.41 14 3.5 12.2l.57-.94 2.34 1.44V14ZM9 12.3 4 9.15v-1.3l5 3.13v1.3ZM13.32 4.85 9.01 7.59 4.68 4.85l-1.02.64L9 8.9l5.33-3.4-1.02-.64Z" fill="#221E1F"/><path d="M11.98 4 9.01 5.9 6 4 5 4.64 9 7.2l4-2.56L11.99 4Z" fill="#221E1F"/></svg>
